X:1
T:Messiah
T:F Major             Jacob French, 1802
T:Isaac Watts, 1719 (Psalm 19)                        88. 88. (L. M.) 
T:Transcribed from Harmony of Harmony, 1802.
%%score [ 1 2 3 4 ]
L:1/8
Q:1/4=110
M:4/4
K:F
V:1 treble nm="Tr." snm="Tr."
V:2 treble nm="C." snm="C."
V:3 treble-8 nm="T." snm="T."
V:4 bass nm="B." snm="B."
V:1
 c4 A3 A | A2 A2 AB cd | c6 c2 | c4 c4 | (A2 c4) c2 | (A2 G4) c2 | c6 c2 |: f3 f f2 c2 | %8
w: 1. Sun, moon and|stars con- vey * thy *|praise, Round|the whole|earth * and|ne- * ver|stand; So|when thy truth be-|
 B2 c2 (A4 | c4 A2 f2 | c6) A2 | B3 B B2 [Ac]2 | A2 A2 A2 f2 | c4 [Ac]4 | (f2 c4) d2 | c4 c4 |1 %16
w: gan the race, |_ _ _|* It|touched, it glanced on|eve- ry land, It|touched, it|glanced * on|eve- ry~|
 [Ac]6 c2 :|2 [Ac]8 |] %18
w: land. So~||
V:2
 F4 F3 F | F2 F2 F2 G2 | A6 AG | (E3 F G2) E2 | (FG A4) F2 | E6 E2 | F6 F2 |: A3 A A2 A2 | %8
w: 2. Nor shall thy|sprea- ding gos- pel|rest Till *|through * * the|world * * thy|truth has|run, Till|Christ has all the|
w: 3. Great Sun of|right- eous- ness, a-|rise, Bless *|the * * dark|world * * with|hea- venly|light; Thy|gos- pel makes the|
 F2 G2 (F4 | A3 G F2 c2 | A6) F2 | G3 G G2 E2 | F2 F2 F2 A2 | A4 F4 | (C2 F4) F2 | %15
w: na- tions blessed |_ _ _ _|* That|see the light or|feel the sun, That|see the|light * or|
w: sim- ple wise, |_ _ _ _|* Thy|laws are pure, thy|judg- ments right, Thy|laws are|pure, * thy|
 (E2 C2) (G2 E2) |1 F6 F2 :|2 F8 |] %18
w: feel * the *|sun. Till||
w: judg- * ments *|right. Thy||
V:3
 F4 c3 c | c2 c2 d>f e>g | f6 f2 | (g3 f e2) c2 | (de f2 e2) c2 | (c3 d c2) AG | F6 F2 |: %7
w: 4. Thy no- blest|won- ders here * we *|view In|souls  _ _ re-|newed  * * * and|sins  _ _ for- *|given; Lord,|
 c3 c c2 c2 | df ed (c4 | f3 e d2 c2 | f6) c2 | d3 d d2 c2 | d2 d2 d2 c2 | f4 c4 | (A2 F4) B2 | %15
w: cleanse my sins, my|soul * re- * new, |_ _ _ _|* And|make thy word my|guide to heaven, And|make thy|word * my|
 A4 G4 |1 F6 F2 :|2 F8 |] %18
w: guide to|heaven. Lord,||
V:4
 F,4 F,3 F, | F,2 F,2 D,2 C,2 | F,6 F,2 | C4 C,4 | F,4 A,,4 | C,6 C,2 | F,6 F,2 |: F,3 F, F,2 A,2 | %8
 D,2 C,2 (F,4- | F,8- | F,6) A,2 | G,3 G, G,2 A,2 | D,2 D,2 D,2 F,2 | F,4 F,4 | (F,3 G, A,2) B,2 | %15
 C4 C,4 |1 F,6 F,2 :|2 F,8 |] %18

